public/brand-bestbuy.svg

<svg width="300" height="176" viewBox="0 0 300 176" fill="none" xmlns="http://www.w3.org/2000/svg">
  <g clip-path="url(#clip0_304_49)">
    <path d="M240.212 127.693H300V175.891H239.859L225 161.715V141.868L240.212 127.693Z" fill="#2563EB" />
    <path
      d="M53.7736 38.0299L54.8349 37.6755C55.5425 37.3211 56.6038 36.6123 57.6651 35.9035C58.7264 35.1947 59.7877 34.1316 60.8491 33.0684C61.9104 32.0052 62.6179 30.5876 63.6792 28.4612C64.3868 26.6892 64.7406 24.5628 64.7406 22.4364C64.7406 17.1205 62.2642 12.1589 57.3113 8.26052C52.3585 4.36215 45.6368 2.23576 37.1462 2.23576H0V78.0769H39.2689C49.1745 78.0769 70.0472 76.3049 70.0472 56.4586C70.0472 41.2195 54.1274 38.0299 53.7736 38.0299ZM24.4104 19.9556H33.6085C35.3774 19.9556 36.7925 20.31 38.2075 21.7276C39.2689 22.7908 39.9764 24.2084 39.9764 25.626C39.9764 27.0436 39.2689 28.4612 38.2075 29.5244C36.7925 30.5876 35.3774 31.2964 33.6085 31.2964H24.4104V19.9556ZM41.3915 58.585C39.9764 60.0026 38.2075 60.7114 36.0849 60.7114H24.4104V47.2443H36.0849C38.2075 47.2443 39.9764 47.9531 41.3915 49.3707C42.8066 50.7882 43.5141 52.2058 43.5141 54.3322C43.5141 55.7498 42.8066 57.1674 41.3915 58.585Z"
      fill="#2563EB" />
    <path
      d="M73.2311 122.022L74.2925 121.668C75 121.313 76.0613 120.605 77.1226 119.896C78.184 119.187 79.2453 118.124 80.3066 117.061C81.3679 115.997 82.0755 114.58 83.1368 112.453C83.8443 110.681 84.1981 108.555 84.1981 106.429C84.1981 101.113 81.7217 96.1511 76.7689 92.2528C71.816 88.3544 65.0943 86.228 56.6038 86.228H19.4576V162.069H58.3726C68.2783 162.069 89.1509 160.297 89.1509 140.451C89.5047 125.212 73.5849 122.377 73.2311 122.022ZM44.2217 103.948H53.066C54.8349 103.948 56.25 104.657 57.6651 105.72C58.7264 106.783 59.434 108.201 59.434 109.618C59.434 111.036 58.7264 112.453 57.6651 113.517C56.6038 114.58 55.1887 115.289 53.066 115.289H44.2217V103.948ZM60.8491 142.577C59.434 143.995 57.6651 144.704 55.5425 144.704H44.2217V131.237H55.5425C57.6651 131.237 59.434 131.945 60.8491 133.363C62.2642 134.78 62.9717 136.198 62.9717 138.324C62.9717 139.742 62.2642 141.16 60.8491 142.577Z"
      fill="#2563EB" />
    <path
      d="M132.665 59.6482H96.2264V47.9531H125.943V30.5876H96.2264V20.6644H132.665V2.23576H71.4623V78.0769H132.665V59.6482Z"
      fill="#2563EB" />
    <path d="M195.283 2.23576V20.6644H215.448V78.0769H239.859V20.6644H259.67V2.23576H195.283Z" fill="#2563EB" />
    <path
      d="M167.689 58.585C166.274 59.6482 164.505 60.357 162.028 60.357C159.552 60.357 157.075 59.6482 154.599 58.2306C152.123 56.813 150.354 55.7498 149.292 55.041C148.939 54.6866 148.231 54.3322 147.877 53.9778L133.373 67.7993L134.434 68.8625C135.142 69.9257 136.557 70.9889 138.325 72.0521C140.094 73.4697 142.217 74.5329 144.693 75.9505C147.17 77.3681 150 78.4313 153.891 79.1401C157.429 80.2033 161.321 80.5577 165.212 80.5577C174.764 80.5577 182.547 78.0769 188.208 73.1153C193.868 68.1537 196.698 62.129 196.698 55.041C196.698 51.1426 195.991 47.2443 194.222 44.4091C192.453 41.2195 190.684 39.0931 188.208 37.3211C185.731 35.9035 183.255 34.486 180.425 33.0684C177.948 32.0052 175.472 30.942 172.995 30.5876C172.642 30.5876 172.642 30.5876 172.288 30.5876C169.811 29.8788 167.689 29.17 166.274 28.1068C164.505 27.0436 163.797 26.3348 163.797 24.9172C163.797 23.4996 164.505 22.4364 165.566 21.3732C166.627 20.31 168.396 19.9556 170.519 19.9556C175.472 19.9556 178.656 22.082 180.071 23.854L194.575 10.0325L194.222 9.67811C193.514 8.96932 192.453 7.90612 191.038 6.84293C189.623 5.77974 187.854 4.71655 185.731 3.65335C183.608 2.59016 181.132 1.52697 177.594 0.81817C174.057 0.463773 170.519 0.109375 166.981 0.109375C157.783 0.109375 150.708 2.59016 145.047 7.19733C139.387 12.1589 136.557 17.8293 136.557 24.2084C136.557 27.7524 137.264 30.942 138.325 33.4228C139.387 36.2579 141.156 38.3843 142.925 40.1563C144.693 41.9283 146.816 43.3459 149.292 44.4091C151.415 45.4723 153.184 46.1811 155.307 46.8899C155.66 46.8899 156.014 47.2443 156.368 47.2443C158.844 47.9531 160.967 48.6619 162.736 49.3707C164.505 50.0794 166.274 50.7882 167.335 51.497C168.396 52.2058 169.104 53.269 169.104 53.9778C169.811 56.1042 169.104 57.5218 167.689 58.585Z"
      fill="#2563EB" />
    <path
      d="M132.665 131.237C132.665 136.198 128.774 140.451 123.467 140.451C118.514 140.451 114.269 136.552 114.269 131.237V86.228H89.8585V130.173C89.8585 148.248 104.363 163.132 122.759 163.132H124.175C142.217 163.132 157.075 148.602 157.075 130.173V86.228H132.665V131.237Z"
      fill="#2563EB" />
    <path
      d="M198.821 112.099L182.901 86.228H158.491L186.792 135.135V162.069H211.203V135.135L239.505 86.228H215.094L198.821 112.099Z"
      fill="#2563EB" />
    <path
      d="M237.028 151.792C237.028 153.564 235.613 154.627 234.198 154.627C232.783 154.627 231.368 153.209 231.368 151.792C231.368 150.02 232.783 148.956 234.198 148.956C235.613 148.956 237.028 150.02 237.028 151.792Z"
      fill="#FFFF00" />
    <path
      d="M240.212 108.201H238.443V107.492H242.689V108.201H240.92V113.517H240.212V108.201ZM243.75 107.492H244.811L246.58 112.099L248.349 107.492H249.41V113.162H248.703V108.201L246.58 113.162H246.226L244.104 108.201V113.162H243.396V107.492H243.75Z"
      fill="#2563EB" />
  </g>
  <defs>
    <clipPath id="clip0_304_49">
      <rect width="300" height="175.781" fill="white" transform="translate(0 0.109375)" />
    </clipPath>
  </defs>
</svg>

<svg width="300" height="176" fill="none" xmlns="http://www.w3.org/2000/svg"><g clip-path="url(#prefix__clip0_304_49)"><path d="M240.212 127.693H300v48.198h-60.141L225 161.715v-19.847l15.212-14.175zM53.774 38.03l1.06-.355c.708-.354 1.77-1.063 2.831-1.771 1.061-.71 2.123-1.772 3.184-2.836 1.061-1.063 1.769-2.48 2.83-4.607.708-1.772 1.062-3.898 1.062-6.025 0-5.316-2.477-10.277-7.43-14.175-4.953-3.899-11.674-6.025-20.165-6.025H0v75.84h39.269c9.906 0 30.778-1.771 30.778-21.617 0-15.24-15.92-18.43-16.273-18.43zM24.41 19.956h9.198c1.77 0 3.184.354 4.6 1.772 1.06 1.063 1.768 2.48 1.768 3.898 0 1.418-.707 2.835-1.768 3.898-1.416 1.064-2.83 1.772-4.6 1.772H24.41v-11.34zm16.982 38.629c-1.416 1.418-3.184 2.126-5.307 2.126H24.41V47.244h11.675c2.123 0 3.891.71 5.306 2.127 1.416 1.417 2.123 2.835 2.123 4.961 0 1.418-.707 2.835-2.123 4.253zM73.231 122.022l1.062-.354c.707-.355 1.768-1.063 2.83-1.772 1.061-.709 2.122-1.772 3.184-2.835 1.06-1.064 1.769-2.481 2.83-4.608.707-1.772 1.061-3.898 1.061-6.024 0-5.316-2.476-10.278-7.43-14.176-4.952-3.899-11.674-6.025-20.164-6.025H19.458v75.841h38.915c9.905 0 30.778-1.772 30.778-21.618.354-15.239-15.566-18.074-15.92-18.429zm-29.01-18.074h8.845c1.769 0 3.184.709 4.6 1.772 1.06 1.063 1.768 2.481 1.768 3.898 0 1.418-.708 2.835-1.769 3.899-1.061 1.063-2.476 1.772-4.599 1.772h-8.844v-11.341zm16.628 38.629c-1.415 1.418-3.184 2.127-5.306 2.127H44.221v-13.467h11.32c2.123 0 3.892.708 5.307 2.126 1.415 1.417 2.123 2.835 2.123 4.961 0 1.418-.708 2.836-2.123 4.253zM132.665 59.648H96.226V47.953h29.717V30.588H96.226v-9.924h36.439V2.236H71.462v75.84h61.203V59.649zM195.283 2.236v18.428h20.165v57.413h24.411V20.664h19.811V2.236h-64.387zM167.689 58.585c-1.415 1.063-3.184 1.772-5.661 1.772-2.476 0-4.953-.709-7.429-2.126-2.476-1.418-4.245-2.481-5.307-3.19-.353-.354-1.061-.709-1.415-1.063l-14.504 13.821 1.061 1.063c.708 1.064 2.123 2.127 3.891 3.19 1.769 1.418 3.892 2.48 6.368 3.898 2.477 1.418 5.307 2.481 9.198 3.19 3.538 1.063 7.43 1.418 11.321 1.418 9.552 0 17.335-2.481 22.996-7.443 5.66-4.961 8.49-10.986 8.49-18.074 0-3.898-.707-7.797-2.476-10.632-1.769-3.19-3.538-5.316-6.014-7.088-2.477-1.417-4.953-2.835-7.783-4.253-2.477-1.063-4.953-2.126-7.43-2.48h-.707c-2.477-.71-4.599-1.418-6.014-2.481-1.769-1.063-2.477-1.772-2.477-3.19 0-1.417.708-2.48 1.769-3.544 1.061-1.063 2.83-1.417 4.953-1.417 4.953 0 8.137 2.126 9.552 3.898l14.504-13.821-.353-.355c-.708-.709-1.769-1.772-3.184-2.835-1.415-1.063-3.184-2.126-5.307-3.19-2.123-1.063-4.599-2.126-8.137-2.835-3.537-.354-7.075-.709-10.613-.709-9.198 0-16.273 2.481-21.934 7.088-5.66 4.962-8.49 10.632-8.49 17.011 0 3.544.707 6.734 1.768 9.215 1.062 2.835 2.831 4.961 4.6 6.733 1.768 1.772 3.891 3.19 6.367 4.253 2.123 1.063 3.892 1.772 6.015 2.48.353 0 .707.355 1.061.355 2.476.71 4.599 1.418 6.368 2.127 1.769.708 3.538 1.417 4.599 2.126 1.061.709 1.769 1.772 1.769 2.48.707 2.127 0 3.545-1.415 4.608zM132.665 131.237c0 4.961-3.891 9.214-9.198 9.214-4.953 0-9.198-3.899-9.198-9.214V86.228h-24.41v43.945c0 18.075 14.504 32.959 32.9 32.959h1.416c18.042 0 32.9-14.53 32.9-32.959V86.228h-24.41v45.009zM198.821 112.099l-15.92-25.871h-24.41l28.301 48.907v26.934h24.411v-26.934l28.302-48.907h-24.411l-16.273 25.871z" fill="#2563EB"/><path d="M237.028 151.792c0 1.772-1.415 2.835-2.83 2.835s-2.83-1.418-2.83-2.835c0-1.772 1.415-2.836 2.83-2.836s2.83 1.064 2.83 2.836z" fill="#FF0"/><path d="M240.212 108.201h-1.769v-.709h4.246v.709h-1.769v5.316h-.708v-5.316zm3.538-.709h1.061l1.769 4.607 1.769-4.607h1.061v5.67h-.707v-4.961l-2.123 4.961h-.354l-2.122-4.961v4.961h-.708v-5.67h.354z" fill="#2563EB"/></g><defs><clipPath id="prefix__clip0_304_49"><path fill="#fff" transform="translate(0 .11)" d="M0 0h300v175.781H0z"/></clipPath></defs></svg>
